styles/4/Numix/16/places/default-folder.svg

<?xml version="1.0" encoding="UTF-8" standalone="no"?>
<!-- Created with Inkscape (http://www.inkscape.org/) -->

<svg
   xmlns:dc="http://purl.org/dc/elements/1.1/"
   xmlns:cc="http://creativecommons.org/ns#"
   xmlns:rdf="http://www.w3.org/1999/02/22-rdf-syntax-ns#"
   xmlns:svg="http://www.w3.org/2000/svg"
   xmlns="http://www.w3.org/2000/svg"
   xmlns:sodipodi="http://sodipodi.sourceforge.net/DTD/sodipodi-0.dtd"
   xmlns:inkscape="http://www.inkscape.org/namespaces/inkscape"
   width="16"
   height="16"
   id="svg2"
   version="1.1"
   inkscape:version="0.91 r"
   sodipodi:docname="default-folder.svg"
   inkscape:export-filename="/media/Data/Main/Visuals/Icons/Numix/Desktop/repos/numix-wiki/Gjorgi/Numix-folders/48/New/folder-144.png"
   inkscape:export-xdpi="270"
   inkscape:export-ydpi="270">
  <defs
     id="defs4" />
  <sodipodi:namedview
     id="base"
     pagecolor="#ffffff"
     bordercolor="#666666"
     borderopacity="1.0"
     inkscape:pageopacity="0.0"
     inkscape:pageshadow="2"
     inkscape:zoom="21.113937"
     inkscape:cx="9.261895"
     inkscape:cy="31.889666"
     inkscape:document-units="px"
     inkscape:current-layer="layer1"
     showgrid="true"
     inkscape:window-width="1920"
     inkscape:window-height="1023"
     inkscape:window-x="0"
     inkscape:window-y="28"
     inkscape:window-maximized="1"
     showguides="true"
     inkscape:guide-bbox="true">
    <inkscape:grid
       type="xygrid"
       id="grid2985"
       empspacing="5"
       visible="true"
       enabled="true"
       snapvisiblegridlinesonly="true" />
  </sodipodi:namedview>
  <metadata
     id="metadata7">
    <rdf:RDF>
      <cc:Work
         rdf:about="">
        <dc:format>image/svg+xml</dc:format>
        <dc:type
           rdf:resource="http://purl.org/dc/dcmitype/StillImage" />
        <dc:title />
      </cc:Work>
    </rdf:RDF>
  </metadata>
  <g
     inkscape:label="Layer 1"
     inkscape:groupmode="layer"
     id="layer1"
     transform="translate(0,-1036.3622)">
    <path
       inkscape:connector-curvature="0"
       id="path3002"
       d="m 3,1038.3622 10.05,0 c 0.9,0 1.95,1 1.95,2 l 0,4 c 0,1.108 -0.8974,2 -1.95,2 l -10.05,0 c -1.0526,0 -2,-0.892 -2,-2 l 0,-6 z"
       style="fill:#e9a439;fill-opacity:1;stroke:none"
       sodipodi:nodetypes="csssssscc" />
    <path
       style="fill:#000000;stroke:none;stroke-width:1px;stroke-linecap:butt;stroke-linejoin:miter;stroke-opacity:1;fill-opacity:1;opacity:0.03"
       d="M 1 4 L 1 7 L 15 7 L 15 5 C 15 4.6488971 14.861186 4.3078213 14.65625 4 L 1 4 z "
       transform="translate(0,1036.3622)"
       id="path3784" />
    <rect
       ry="1"
       rx="1"
       y="1041.3622"
       x="0"
       height="11"
       width="16"
       id="rect2992"
       style="fill:#f5c14e;fill-opacity:1;stroke:none" />
    <path
       style="opacity:0.1;fill:#ffffff;fill-opacity:1;stroke:none"
       d="M 1 5 C 0.446 5 0 5.446 0 6 L 16 6 C 16 5.446 15.554 5 15 5 L 1 5 z "
       transform="translate(0,1036.3622)"
       id="path2994" />
    <path
       sodipodi:nodetypes="csscc"
       inkscape:connector-curvature="0"
       id="path3004"
       d="m 1,1039.3622 c 0,-2 0,-3 1.818182,-3 l 2.363636,0 c 1.818182,0 1.818182,1 1.818182,3 z"
       style="fill:#e9a439;fill-opacity:1;stroke:none" />
    <path
       style="opacity:0.05;fill:#000000;fill-opacity:1;stroke:none"
       d="m 7,2 0,1 2,0 4.0625,0 C 13.9625,3 15,4 15,5 L 15,4 C 15,3 13.9625,2 13.0625,2 L 9,2 z"
       transform="translate(0,1036.3622)"
       id="path3006"
       inkscape:connector-curvature="0"
       sodipodi:nodetypes="cccscsscc" />
    <path
       style="fill:#000000;fill-opacity:1;stroke:none;opacity:0.05"
       d="M 2.8125 0 C 0.994318 0 1 1 1 3 L 1.03125 3 C 1.0846676 1.6894516 1.3406997 1 2.8125 1 L 5.1875 1 C 6.6593003 1 6.9153324 1.6894516 6.96875 3 L 7 3 C 7 1 7.005682 0 5.1875 0 L 2.8125 0 z "
       transform="translate(0,1036.3622)"
       id="path3779" />
  </g>
</svg>

<!-- Created with Inkscape (http://www.inkscape.org/) -->
<svg xmlns="http://www.w3.org/2000/svg" viewBox="0 0 16 16">
 <g transform="translate(0,-1036.3622)">
  <path d="m 3 1038.36 10.05 0 c 0.9 0 1.95 1 1.95 2 l 0 4 c 0 1.108 -0.897 2 -1.95 2 l -10.05 0 c -1.053 0 -2 -0.892 -2 -2 l 0 -6 z" style="fill:#e9a439;fill-opacity:1;stroke:none"/>
  <path d="m 1 4 l 0 3 l 14 0 l 0 -2 c 0 -0.351 -0.139 -0.692 -0.344 -1 l -13.656 0 z" transform="translate(0,1036.3622)" style="fill:#000;opacity:0.03;fill-opacity:1;stroke:none"/>
  <rect rx="1" y="1041.36" height="11" width="16" style="fill:#f5c14e;fill-opacity:1;stroke:none"/>
  <path d="M 1 5 C 0.446 5 0 5.446 0 6 L 16 6 C 16 5.446 15.554 5 15 5 L 1 5 z " transform="translate(0,1036.3622)" style="fill:#fff;opacity:0.1;fill-opacity:1;stroke:none"/>
  <path d="m 1 1039.36 c 0 -2 0 -3 1.818 -3 l 2.364 0 c 1.818 0 1.818 1 1.818 3 z" style="fill:#e9a439;fill-opacity:1;stroke:none"/>
  <path d="m 7,2 0,1 2,0 4.0625,0 C 13.9625,3 15,4 15,5 L 15,4 C 15,3 13.9625,2 13.0625,2 L 9,2 z" transform="translate(0,1036.3622)" style="fill:#000;opacity:0.05;fill-opacity:1;stroke:none"/>
  <path d="m 2.813 0 c -1.818 0 -1.813 1 -1.813 3 l 0.031 0 c 0.053 -1.311 0.309 -2 1.781 -2 l 2.375 0 c 1.472 0 1.728 0.689 1.781 2 l 0.031 0 c 0 -2 0.006 -3 -1.813 -3 l -2.375 0 z" transform="translate(0,1036.3622)" style="fill:#000;opacity:0.05;fill-opacity:1;stroke:none"/>
 </g>
</svg>
